packages/opendesign/src/icons/svgs/fill/error.svg

<?xml version="1.0" encoding="UTF-8"?>
<svg width="24px" height="24px" viewBox="0 0 24 24" version="1.1" xmlns="http://www.w3.org/2000/svg" xmlns:xlink="http://www.w3.org/1999/xlink">
    <title>error</title>
    <g id="error" stroke="none" stroke-width="1" fill="none" fill-rule="evenodd">
        <path d="M12,2 C17.5228475,2 22,6.4771525 22,12 C22,17.5228475 17.5228475,22 12,22 C6.4771525,22 2,17.5228475 2,12 C2,6.4771525 6.4771525,2 12,2 Z M8.83876244,8.00976521 C8.60492067,7.84776995 8.28161139,7.87091213 8.07333177,8.07919175 C7.86505215,8.28747138 7.84190997,8.61078066 8.00390523,8.84462243 L8.00390523,8.84462243 L8.07333177,8.92771989 L11.1555958,12.0104558 L8.08185015,15.0849078 L8.01242361,15.1680053 C7.85042835,15.401847 7.87357053,15.7251563 8.08185015,15.9334359 C8.31616473,16.1677505 8.69606371,16.1677505 8.93037829,15.9334359 L8.93037829,15.9334359 L15.9303783,8.93343592 L15.9998048,8.85033846 C16.1618001,8.61649669 16.1386579,8.29318741 15.9303783,8.08490779 C15.6960637,7.85059321 15.3161647,7.85059321 15.0818502,8.08490779 L15.0818502,8.08490779 L12.0045958,11.1614558 L8.92185991,8.07919175 Z M13.6863802,12.857383 C13.4525385,12.6953878 13.1292292,12.7185299 12.9209496,12.9268096 C12.71267,13.1350892 12.6895278,13.4583985 12.851523,13.6922402 L12.851523,13.6922402 L12.9209496,13.7753377 L15.0733318,15.9277199 L15.1564292,15.9971464 C15.390271,16.1591417 15.7135803,16.1359995 15.9218599,15.9277199 C16.1301395,15.7194403 16.1532817,15.396131 15.9912864,15.1622892 L15.9912864,15.1622892 L15.9218599,15.0791918 L13.7694777,12.9268096 Z" id="path1" fill="#000000"></path>
    </g>
</svg>

<!-- Generated by IcoMoon.io -->
<svg version="1.1" xmlns="http://www.w3.org/2000/svg" width="24" height="24" viewBox="0 0 24 24">
<title>error</title>
<path d="M12 2c5.523 0 10 4.477 10 10s-4.477 10-10 10c-5.523 0-10-4.477-10-10s4.477-10 10-10zM8.839 8.010c-0.234-0.162-0.557-0.139-0.765 0.069s-0.231 0.532-0.069 0.765v0l0.069 0.083 3.082 3.083-3.074 3.074-0.069 0.083c-0.162 0.234-0.139 0.557 0.069 0.765 0.234 0.234 0.614 0.234 0.849 0v0l7-7 0.069-0.083c0.162-0.234 0.139-0.557-0.069-0.765-0.234-0.234-0.614-0.234-0.849 0v0l-3.077 3.077-3.083-3.082zM13.686 12.857c-0.234-0.162-0.557-0.139-0.765 0.069s-0.231 0.532-0.069 0.765v0l0.069 0.083 2.152 2.152 0.083 0.069c0.234 0.162 0.557 0.139 0.765-0.069s0.231-0.532 0.069-0.765v0l-0.069-0.083-2.152-2.152z"></path>
</svg>
